lib/functional/education/graduation-cap.svg

<svg xmlns="http://www.w3.org/2000/svg" fill="none" stroke="currentColor" aria-hidden="true" viewBox="0 0 32 32"><g id="Icon-GraduationCap"><g clip-path="url(#clip0_11_4322)"><g id="size=md (32px)"><g id="GraduationCap"><path id="Vector" stroke-linecap="round" stroke-linejoin="round" stroke-width="2" d="M1 12L16 4L31 12L16 20L1 12Z"/><path id="Vector_2" stroke-linecap="round" stroke-linejoin="round" stroke-width="2" d="M23.5 30V16L16 12"/><path id="Vector_3" stroke-linecap="round" stroke-linejoin="round" stroke-width="2" d="M27.5 13.8625V20.6875C27.4991 20.8999 27.4289 21.1062 27.3 21.275C26.4625 22.4 22.9125 26.5 16 26.5C9.0875 26.5 5.5375 22.4 4.7 21.275C4.57112 21.1062 4.5009 20.8999 4.5 20.6875V13.8625"/></g></g></g></g><defs><clipPath id="clip0_11_4322"><rect width="32" height="32" fill="white" rx="5"/></clipPath></defs></svg>

<svg xmlns="http://www.w3.org/2000/svg" fill="none" stroke="currentColor" aria-hidden="true" viewBox="0 0 32 32"><g stroke="#101828" stroke-linecap="round" stroke-linejoin="round" stroke-width="2" clip-path="url(#a)"><path d="m1 12 15-8 15 8-15 8-15-8Z"/><path d="M23.5 30V16L16 12"/><path d="M27.5 13.863v6.825a.975.975 0 0 1-.2.587C26.462 22.4 22.913 26.5 16 26.5c-6.912 0-10.463-4.1-11.3-5.225a.975.975 0 0 1-.2-.587v-6.825"/></g><defs><clipPath id="a"><rect width="32" height="32" fill="#fff" rx="5"/></clipPath></defs></svg>
